modules/framework7-icons/icons/persons.svg

<?xml version="1.0" encoding="UTF-8"?>
<svg width="50px" height="50px" viewBox="0 0 50 50" version="1.1" xmlns="http://www.w3.org/2000/svg" xmlns:xlink="http://www.w3.org/1999/xlink">
    <!-- Generator: Sketch 40.1 (33804) - http://www.bohemiancoding.com/sketch -->
    <title>persons</title>
    <desc>Created with Sketch.</desc>
    <defs></defs>
    <g id="Page-1" stroke="none" stroke-width="1" fill="none" fill-rule="evenodd">
        <g id="persons" fill="#000000">
            <path d="M48,25 C48,12.2974508 37.7025492,2 25,2 C12.2974508,2 2,12.2974508 2,25 C2,37.7025492 12.2974508,48 25,48 C37.7025492,48 48,37.7025492 48,25 Z M0,25 C0,11.1928813 11.1928813,0 25,0 C38.8071187,0 50,11.1928813 50,25 C50,38.8071187 38.8071187,50 25,50 C11.1928813,50 0,38.8071187 0,25 Z" id="Oval-39"></path>
            <path d="M21.5630892,8.24662764 C18.509941,9.65284062 18.3027126,9.83481177 16.9254373,11.7319085 C14.692656,14.8074024 16.1373704,18.6120778 16.1738289,21.4931906 C16.1801357,21.9915824 15.2022587,21.5562814 15.2557115,22.040139 C15.3350168,22.7580165 15.795751,24.6874816 15.9270898,25.3125862 C16.3662512,27.4027671 16.4651594,26.8865252 16.9254373,27.9326413 C17.3482422,28.8935891 17.6971806,27.789004 18.0756691,28.8245813 C18.4721299,29.9093322 18.3464167,32.6188732 18.7689703,33.6629711 C19.7683812,36.1324397 20.7598046,36.1499128 20.0466801,38.7366843 C19.7606339,39.7742817 19.2259009,40.9195773 18.0756691,41.2942208 C16.9254373,41.6688642 11.0569732,43.2755717 11.0569732,43.2755717 C10.0836738,47.1085361 21.7875481,50.1797507 30.3466626,49.0361863 C36.6931545,48.1882455 40.5729723,43.4423465 40.1489954,43.2755717 C38.1683704,42.4964768 33.7714804,40.9718174 32.3626463,39.9610786 C31.6625646,39.4588194 30.5289344,37.7162434 31.2099187,35.4179125 C31.5834617,34.1571997 31.9966556,34.5472588 32.3626463,33.6629711 C32.7969642,32.6135948 32.5716281,29.5897114 33.208384,28.2355979 C33.3532499,27.9275287 34.1635173,27.8266387 34.3033505,27.466124 C34.6826763,26.4881552 35.4862478,22.9898765 35.6839139,22.040139 C35.754643,21.7003031 34.2413003,21.8345742 34.3033505,21.4931906 C34.4413548,20.7339282 34.7525888,20.0524771 34.82641,19.2790122 C35.0438062,17.0012354 34.7947436,13.3765201 34.3033505,11.7319085 C33.6558815,9.56493653 29.9201169,7.85499534 28.598543,7.74317838 C27.6204254,7.66042088 27.386887,7 26.3489582,7 C23.9898129,7 21.5630892,8.24662764 21.5630892,8.24662764 Z" id="Path-2"></path>
            <path d="M41.9026673,41.531944 C44.4822565,40.4588041 45.2216446,38.0871857 45,38 C43.7659963,37.5145947 42.3429816,36.9564269 41.4652251,36.3266986 C41.0290479,36.0137724 40.3227538,34.9280821 40.7470325,33.4961357 C40.9797639,32.7106644 41.2371992,32.9536858 41.4652251,32.4027414 C41.7358215,31.7489406 41.5954286,29.8649478 41.9921514,29.0212843 C42.0824083,28.8293457 42.5872353,28.7664874 42.6743566,28.5418732 C42.9106908,27.9325619 43.411346,25.7530031 43.5344994,25.161281 C43.5785663,24.9495505 42.635697,25.0332064 42.6743566,24.8205116 C42.7603385,24.3474627 42.9542489,23.9228931 43.0002423,23.4409954 C43.1356883,22.021855 42.980513,19.7635215 42.6743566,18.7388667 C42.2709592,17.3887619 39.9434377,16.3234044 39.1200476,16.2537382 C38.6345554,16.2126612 38.4434912,15.9431596 38.0588907,15.8352609 C38.0686494,16.6391065 38.0447963,17.4107774 37.9819051,18.0697224 C37.9080839,18.8431873 37.5968499,19.5246384 37.4588456,20.2839008 C37.3967953,20.6252844 38.9101381,20.4910133 38.839409,20.8308492 C38.6417429,21.7805867 37.8381714,25.2788654 37.4588456,26.2568342 C37.3190124,26.6173489 36.508745,26.7182389 36.3638791,27.0263081 C35.7271232,28.3804216 35.9524593,31.404305 35.5181414,32.4536813 C35.1521507,33.337969 34.7389568,32.9479099 34.3654137,34.2086227 C33.6844294,36.5069536 34.8180597,38.2495296 35.5181414,38.7517888 C36.6509411,39.5644924 39.7155987,40.7094594 41.9026673,41.531944 Z" id="Combined-Shape"></path>
            <path d="M9.68667411,41.7944356 C6.65003651,40.8976731 4.41842998,39.3180797 4.79194166,37.8471478 C4.79194166,37.8471478 7.8581635,37.6097902 8.60710103,37.3658528 C9.35603856,37.1219154 9.70421325,36.3761919 9.89046329,35.7005927 C10.354792,34.0162973 9.70925769,34.0049202 9.05852245,32.3970028 C8.78338984,31.717171 8.8652441,29.952938 8.60710103,29.2466363 C8.36066004,28.5723525 8.13345972,29.2915686 7.8581635,28.6658774 C7.55846793,27.9847316 7.49406691,28.3208664 7.2081207,26.9599103 C7.12260356,26.552893 6.82261087,25.2965821 6.77097365,24.8291586 C6.73616958,24.5141098 7.37288365,24.7975425 7.36877717,24.4730302 C7.34503832,22.5970835 6.40435768,20.1197879 7.8581635,18.1172761 C8.75493333,16.8820408 8.8898636,16.763556 10.8778258,15.8479443 C10.8778258,15.8479443 11.5450028,15.50521 12.4337519,15.2651595 C12.4671686,17.1158713 12.9050534,18.9597251 12.924917,20.5294322 C12.9312238,21.027824 11.9533468,20.592523 12.0067995,21.0763806 C12.0861049,21.7942581 12.5468391,23.7237232 12.6781779,24.3488278 C13.1173392,26.4390087 13.2162475,25.9227668 13.6765254,26.9688829 C14.0993303,27.9298307 14.4482686,26.8252456 14.8267572,27.8608229 C15.223218,28.9455738 15.0975047,31.6551148 15.5200583,32.6992127 C16.5194693,35.1686813 17.5108926,35.1861544 16.7977681,37.7729259 C16.511722,38.8105233 15.976989,39.9558189 14.8267572,40.3304624 C14.1027314,40.5662857 11.5092438,41.2902785 9.68667411,41.7944356 Z" id="Combined-Shape"></path>
        </g>
    </g>
</svg>

<svg width="50" height="50" viewBox="0 0 50 50" xmlns="http://www.w3.org/2000/svg"><g fill="#000" fill-rule="evenodd"><path d="M48 25C48 12.297 37.703 2 25 2S2 12.297 2 25s10.297 23 23 23 23-10.297 23-23zM0 25C0 11.193 11.193 0 25 0s25 11.193 25 25-11.193 25-25 25S0 38.807 0 25z"/><path d="M21.563 8.247c-3.053 1.406-3.26 1.588-4.638 3.485-2.232 3.075-.788 6.88-.751 9.761.006.499-.972.063-.918.547.079.718.54 2.647.671 3.273.44 2.09.538 1.574.998 2.62.423.96.772-.144 1.15.892.397 1.084.271 3.794.694 4.838 1 2.47 1.99 2.487 1.278 5.074-.286 1.037-.821 2.183-1.971 2.557-1.15.375-7.019 1.982-7.019 1.982-.973 3.833 10.73 6.904 19.29 5.76 6.346-.848 10.226-5.594 9.802-5.76-1.98-.78-6.378-2.304-7.786-3.315-.7-.502-1.834-2.245-1.153-4.543.373-1.26.787-.87 1.153-1.755.434-1.05.209-4.073.845-5.427.145-.308.956-.41 1.095-.77.38-.978 1.183-4.476 1.38-5.426.072-.34-1.442-.205-1.38-.547.138-.76.45-1.44.523-2.214.218-2.278-.031-5.902-.523-7.547-.647-2.167-4.383-3.877-5.704-3.989C27.62 7.66 27.387 7 26.349 7c-2.36 0-4.786 1.247-4.786 1.247z"/><path d="M41.903 41.532C44.483 40.459 45.222 38.087 45 38c-1.234-.485-2.657-1.044-3.535-1.673-.436-.313-1.142-1.399-.718-2.83.233-.786.49-.543.718-1.094.27-.654.13-2.538.527-3.382.09-.192.595-.255.682-.48.237-.608.737-2.788.86-3.38.045-.211-.898-.128-.86-.34.086-.474.28-.898.326-1.38.136-1.42-.02-3.677-.326-4.702-.403-1.35-2.73-2.416-3.554-2.485-.485-.041-.677-.31-1.061-.419.01.804-.014 1.576-.077 2.235-.074.773-.385 1.455-.523 2.214-.062.341 1.451.207 1.38.547-.197.95-1 4.448-1.38 5.426-.14.36-.95.461-1.095.77-.637 1.353-.412 4.377-.846 5.427-.366.884-.779.494-1.153 1.755-.68 2.298.453 4.04 1.153 4.543 1.133.812 4.198 1.957 6.385 2.78zM9.687 41.794c-3.037-.896-5.269-2.476-4.895-3.947 0 0 3.066-.237 3.815-.481.749-.244 1.097-.99 1.283-1.665.465-1.685-.18-1.696-.831-3.304-.276-.68-.194-2.444-.452-3.15-.246-.675-.474.045-.749-.581-.3-.681-.364-.345-.65-1.706-.085-.407-.385-1.663-.437-2.13-.035-.316.602-.032.598-.357-.024-1.876-.965-4.353.49-6.356.896-1.235 1.03-1.353 3.019-2.27 0 0 .667-.342 1.556-.582.033 1.85.471 3.695.49 5.264.007.499-.97.064-.917.547.08.718.54 2.648.671 3.273.44 2.09.538 1.574.999 2.62.422.96.771-.144 1.15.892.396 1.085.27 3.794.693 4.838 1 2.47 1.99 2.487 1.278 5.074-.286 1.038-.821 2.183-1.971 2.557-.724.236-3.318.96-5.14 1.464z"/></g></svg>
